libs/ui/packages/crypto-icons/src/svg/BAY.svg

<svg width="24" height="24" viewBox="0 0 24 24" fill="none">
<path d="M17.088 11.9805C17.1315 11.9317 17.1803 11.883 17.229 11.8335C17.3865 11.664 17.559 11.4833 17.7218 11.3085C18.3738 10.6288 18.7384 9.72365 18.7395 8.78175C18.7395 8.7165 18.75 8.448 18.75 8.40975C18.6742 6.25575 16.8607 4.5 14.7172 4.5H7.96725V7.22325H5.25V19.5H14.8253C16.953 19.5 18.75 17.6078 18.75 15.366C18.7552 13.7633 17.7645 12.6315 17.088 11.9805ZM9.32025 8.5905L14.6955 8.59575L11.3182 12.0195L14.658 15.4095H9.32025V8.5905ZM14.8253 18.1275H6.603V8.58525H7.968V16.7715H14.658C15.21 16.7715 15.7028 16.4377 15.9135 15.924C16.0173 15.674 16.0449 15.3989 15.9928 15.1332C15.9408 14.8675 15.8114 14.6232 15.621 14.4307L13.2345 12.0135L15.6593 9.558C16.0492 9.16425 16.1625 8.57925 15.9517 8.0655C15.8505 7.81523 15.6769 7.60087 15.4531 7.44989C15.2293 7.2989 14.9655 7.21816 14.6955 7.218H9.3255V5.862H14.7225C16.152 5.862 17.3535 7.02675 17.4022 8.44275C17.4022 8.50275 17.391 8.73825 17.391 8.7435V8.7705C17.3909 9.36436 17.1602 9.93498 16.7475 10.362C16.5795 10.5375 16.4062 10.7227 16.2495 10.887C15.984 11.166 15.7568 11.4067 15.648 11.5162L15.1605 11.997L15.6427 12.4845C15.708 12.5498 15.789 12.6262 15.8865 12.7192C16.449 13.2442 17.397 14.1187 17.397 15.3547C17.4022 16.8315 16.2008 18.1275 14.8253 18.1275Z" fill="#6356AB"/>
</svg>

<svg width="24" height="24" viewBox="0 0 24 24" fill="none"><path fill="#6356ab" d="M17.088 11.98q.066-.072.141-.146c.158-.17.33-.35.493-.525a3.66 3.66 0 0 0 1.017-2.527c0-.066.011-.334.011-.372-.076-2.154-1.89-3.91-4.033-3.91h-6.75v2.723H5.25V19.5h9.575c2.128 0 3.925-1.892 3.925-4.134.005-1.603-.985-2.734-1.662-3.386M9.32 8.59l5.375.006-3.377 3.424 3.34 3.39H9.32zm5.505 9.538H6.603V8.585h1.365v8.186h6.69c.552 0 1.045-.333 1.256-.847a1.37 1.37 0 0 0-.293-1.493l-2.386-2.417 2.424-2.456c.39-.394.504-.979.293-1.492a1.36 1.36 0 0 0-1.257-.848h-5.37V5.862h5.398c1.429 0 2.63 1.165 2.68 2.58 0 .06-.012.296-.012.301v.027a2.3 2.3 0 0 1-.643 1.592c-.169.175-.342.36-.498.525-.266.279-.493.52-.602.63l-.487.48.482.488q.098.096.243.234c.563.525 1.511 1.4 1.511 2.636.005 1.476-1.196 2.773-2.572 2.773"/></svg>
